other/passwordstore.svg

<svg xmlns="http://www.w3.org/2000/svg" viewBox="0 0 48 48" version="1.1" id="svg118">
  <defs id="defs122">
    <style id="style1049"/>
    <style id="style897">
    </style>
  </defs>
  <g id="g847" transform="matrix(3.95097 0 0 3.95097 -1.0886628 -1.0886618)" stroke-width=".2531024" stroke-miterlimit="4" stroke-dasharray="none" fill="none" stroke="#fff">
    <g stroke-width=".2501185" id="g110" transform="translate(-.0525333 .0793502) scale(1.01193)">
      <path id="ellipse102" d="M6.96675 8.38566a.72734.73554 0 01-.72734.73554.72734.73554 0 01-.72734-.73554.72734.73554 0 01.72734-.73554.72734.73554 0 01.72734.73554z" stroke-linecap="round" stroke-linejoin="round"/>
      <path id="ellipse104" d="M8.9699 9.36085a.72734.73554 0 01-.72734.73554.72734.73554 0 01-.72734-.73554.72734.73554 0 01.72734-.73554.72734.73554 0 01.72734.73554z" stroke-linecap="round" stroke-linejoin="round"/>
      <path id="ellipse106" d="M8.96148 6.48767a.72734.73554 0 01-.72734.73554.72734.73554 0 01-.72734-.73554.72734.73554 0 01.72734-.73554.72734.73554 0 01.72734.73554z" stroke-linecap="round" stroke-linejoin="round"/>
      <path d="M6.7686 7.85847l.83049-.81516m.67621 1.61001v-1.3418" id="path108"/>
    </g>
    <path d="M7.8003667 4.6785402h-4.97852a.93013.93013 0 00-.92096 1.0604l.62654 4.4293198a1.23311 1.23311 0 001.22096 1.0604h5.15588a1.24296 1.24296 0 001.2293003-1.05918l.66457-4.4454498a.92276.92276 0 00-.9126203-1.0592h-1.00742" stroke-width=".2531024" stroke-linecap="round" id="path112"/>
    <path d="M8.3215267 5.9190802v-1.2576" stroke-width=".2531024" id="path114"/>
    <path d="M4.4249667 4.6614702v-1.0574c0-2.21931 1.9483-2.13226 1.9483-2.13226m1.94827 3.18965v-1.0574c-.00001-2.2193-1.94827-2.13225-1.94827-2.13225" stroke-width=".2531024" stroke-linecap="round" id="path116"/>
  </g>
</svg>

<?xml version="1.0" encoding="UTF-8" standalone="no"?>
<svg
   xmlns:dc="http://purl.org/dc/elements/1.1/"
   xmlns:cc="http://creativecommons.org/ns#"
   xmlns:rdf="http://www.w3.org/1999/02/22-rdf-syntax-ns#"
   xmlns:svg="http://www.w3.org/2000/svg"
   xmlns="http://www.w3.org/2000/svg"
   xmlns:sodipodi="http://sodipodi.sourceforge.net/DTD/sodipodi-0.dtd"
   xmlns:inkscape="http://www.inkscape.org/namespaces/inkscape"
   width="48"
   height="48"
   viewBox="0 0 48 48"
   version="1.1"
   id="svg118"
   sodipodi:docname="passwordstore.svg"
   inkscape:version="1.0.2 (e86c870879, 2021-01-15)">
  <sodipodi:namedview
     pagecolor="#000000"
     bordercolor="#666666"
     borderopacity="1"
     objecttolerance="10"
     gridtolerance="10"
     guidetolerance="10"
     inkscape:pageopacity="0"
     inkscape:pageshadow="2"
     inkscape:window-width="1621"
     inkscape:window-height="1041"
     id="namedview14"
     showgrid="false"
     inkscape:zoom="11.549411"
     inkscape:cx="13.928854"
     inkscape:cy="31.405124"
     inkscape:window-x="6"
     inkscape:window-y="33"
     inkscape:window-maximized="0"
     inkscape:current-layer="svg118"
     inkscape:document-rotation="0" />
  <metadata
     id="metadata15">
    <rdf:RDF>
      <cc:Work
         rdf:about="">
        <dc:format>image/svg+xml</dc:format>
        <dc:type
           rdf:resource="http://purl.org/dc/dcmitype/StillImage" />
        <dc:title />
      </cc:Work>
    </rdf:RDF>
  </metadata>
  <defs
     id="defs122">
    <style
       id="style1049" />
    <style
       id="style897">.a{fill:none;stroke:#fff;stroke-linecap:round;stroke-linejoin:round;}</style>
  </defs>
  <g
     id="g847"
     transform="matrix(3.9509692,0,0,3.9509692,-1.0886628,-1.0886618)"
     style="stroke-width:0.25310245;stroke-miterlimit:4;stroke-dasharray:none">
    <g
       fill="none"
       stroke="#ffffff"
       stroke-width="0.25308"
       id="g110"
       transform="matrix(1.01193,0,0,1.01193,-0.0525333,0.07935019)"
       stroke-miterlimit="4"
       stroke-dasharray="none"
       style="stroke-width:0.25011854;stroke-miterlimit:4;stroke-dasharray:none">
      <path
         id="ellipse102"
         d="M 6.96675,8.38566 A 0.72734,0.73554 0 0 1 6.23941,9.1212 0.72734,0.73554 0 0 1 5.51207,8.38566 0.72734,0.73554 0 0 1 6.23941,7.65012 0.72734,0.73554 0 0 1 6.96675,8.38566 Z"
         stroke-linecap="round"
         stroke-linejoin="round"
         style="stroke-width:0.25011854;stroke-miterlimit:4;stroke-dasharray:none" />
      <path
         id="ellipse104"
         d="M 8.9699,9.36085 A 0.72734,0.73554 0 0 1 8.24256,10.09639 0.72734,0.73554 0 0 1 7.51522,9.36085 0.72734,0.73554 0 0 1 8.24256,8.62531 0.72734,0.73554 0 0 1 8.9699,9.36085 Z"
         stroke-linecap="round"
         stroke-linejoin="round"
         style="stroke-width:0.25011854;stroke-miterlimit:4;stroke-dasharray:none" />
      <path
         id="ellipse106"
         d="M 8.96148,6.48767 A 0.72734,0.73554 0 0 1 8.23414,7.22321 0.72734,0.73554 0 0 1 7.5068,6.48767 0.72734,0.73554 0 0 1 8.23414,5.75213 0.72734,0.73554 0 0 1 8.96148,6.48767 Z"
         stroke-linecap="round"
         stroke-linejoin="round"
         style="stroke-width:0.25011854;stroke-miterlimit:4;stroke-dasharray:none" />
      <path
         d="M 6.7686,7.85847 7.59909,7.04331 M 8.2753,8.65332 v -1.3418"
         id="path108"
         style="stroke-width:0.25011854;stroke-miterlimit:4;stroke-dasharray:none" />
    </g>
    <path
       d="m 7.8003667,4.6785402 h -4.97852 a 0.93013,0.93013 0 0 0 -0.92096,1.0604 l 0.62654,4.4293198 a 1.23311,1.23311 0 0 0 1.22096,1.0604 h 5.15588 a 1.24296,1.24296 0 0 0 1.2293003,-1.05918 l 0.66457,-4.4454498 a 0.92276,0.92276 0 0 0 -0.9126203,-1.0592 h -1.00742"
       fill="none"
       stroke="#ffffff"
       stroke-width="0.2561"
       stroke-linecap="round"
       id="path112"
       stroke-miterlimit="4"
       stroke-dasharray="none"
       style="stroke-width:0.25310245;stroke-miterlimit:4;stroke-dasharray:none" />
    <path
       d="m 8.3215267,5.9190802 v -1.2576"
       fill="none"
       stroke="#ffffff"
       stroke-width="0.2561"
       id="path114"
       stroke-miterlimit="4"
       stroke-dasharray="none"
       style="stroke-width:0.25310245;stroke-miterlimit:4;stroke-dasharray:none" />
    <path
       d="m 4.4249667,4.6614702 v -1.0574 c 0,-2.21931 1.9483,-2.13226 1.9483,-2.13226 m 1.94827,3.18965 v -1.0574 c -10e-6,-2.2193 -1.94827,-2.13225 -1.94827,-2.13225"
       fill="none"
       stroke="#ffffff"
       stroke-width="0.2561"
       stroke-linecap="round"
       id="path116"
       stroke-miterlimit="4"
       stroke-dasharray="none"
       style="stroke-width:0.25310245;stroke-miterlimit:4;stroke-dasharray:none" />
  </g>
</svg>
